li/brand-haskell.svg

<svg role="img" focusable="false" aria-hidden="true" xmlns="http://www.w3.org/2000/svg" viewBox="0 0 14 14" height="1em" width="1em">
  <path d="M 1,11.235294 3.8235294,7 1,2.764706 l 2.1176471,0 L 5.9411765,7 3.1176471,11.235294 1,11.235294 Z m 2.8235294,0 L 6.647059,7 3.8235294,2.764706 l 2.1176471,0 5.6470585,8.470588 -2.117647,0 -1.764442,-2.646927 -1.7649695,2.646927 -2.1176471,0 z m 9.1759436,-2.470852 -2.352766,0 -0.941,-1.411765 3.294293,0 z m 0,-2.117647 -3.76453,0 L 8.293942,5.23503 13,5.23503 Z"/>
</svg>

<svg aria-hidden="true" xmlns="http://www.w3.org/2000/svg" viewBox="0 0 14 14" height="1em" width="1em">
  <path d="M1 11.235 3.824 7 1 2.765h2.118L5.94 7l-2.823 4.235H1Zm2.824 0L6.647 7 3.824 2.765H5.94l5.647 8.47H9.471L7.706 8.588l-1.765 2.647H3.824zm9.175-2.47h-2.352l-.941-1.412H13zm0-2.118H9.235l-.941-1.412H13Z"/>
</svg>
